X:226
T:unknown
S:Theo Baumard
Z:robin.beech@mcgill.ca
R:jig
M:4/4
L:1/8
K:D
e2e fed | e2A Bcd | e2e gfe | dBG Bcd |
ecA fed | ecA Bcd | e2g gfe | dBG Bcd ::
A2a aga | e2^g aec | A2a age | ged edB |
A2a a^ga | e2^g aff | g2g gfe | dBG Bcd :|
